X:1
T:Jobs Historie
T:Jobs Historie
T:Ole Andersen Mærli, Sørum
C:Ole Andersen Mærli, Sørum
L:1/8
M:4/4
K:F
V:1 treble nm="Piano" snm="Pno."
V:1
 G2 |"Dm" A2 A2"A" E2 A2 |"Dm" F2"A" E2"Dm" D2 (DE) | F2"G" G2"F" A2"Bb" d2 |"F" cA A4 G2 | %5
w: Der|var en Mand, hvis|Navn var Job, I *|Lan- det Ur han|Bo- e- de; Jeg|
"Dm" A2 A2"A" E2 A2 |"Dm" F2"A" E2"Dm" D2 (DE) | F2"G" G2"F" A2"Bb" d2 |"F" cA A4"G" =B2 | %9
w: skri- ve vil hans|Lev- nets Lob, Som *|om og om sig|Sno- e- de. Hans|
"C" c2 (c=B)"F" A2"G" G2 |"F" (AG)"Dm" F2"E" E2 (FE) |"Dm" D2 A2"Em" G2"Dm" (FE) | %12
w: Prov af * Gud an-|teg- * net staar Til *|e- vigt Ef- ter *|
"G" D2"C" C4"F" A2 |"Dm" F2"C" G2"F" A2"Bb" d2 |"Am" c2"E" =B2"Am" A2"Em" G2 | %15
w: Min- de, At|Her- rens Frygt og|From- hed var Hos|
"Dm" F2"Gm" G2"Dm" (AG) F2 |"A7" E2"Dm" D4 z2 |] %17
w: ham i Hjer- * tet|in- de.|

